logo-v2024.svg

<?xml version="1.0" encoding="UTF-8" standalone="no"?>
<svg
   version="1.1"
   viewBox="0 0 520 512"
   id="svg6"
   width="520"
   height="512"
   xmlns="http://www.w3.org/2000/svg"
   xmlns:svg="http://www.w3.org/2000/svg">
  <defs
     id="defs1">
    <style
       id="style1">
      .cls-1 {
        fill: none;
      }

      .cls-2 {
        fill: #e95420;
      }

      .cls-3 {
        fill: #fff;
      }
    </style>
  </defs>
  <g
     id="Circle-of-Friends">
    <path
       id="circle13"
       class="cls-2"
       d="M 280,16 C 184.66864,16 102.01684,72.109047 63.339844,152.97656 A 104,104 0 0 1 72,152 104,104 0 0 1 127.4043,168.03711 C 157.72537,115.33042 214.52761,80 280,80 c 0.24767,0 0.49086,0.01657 0.73828,0.01758 a 104,104 0 0 1 13.19531,-56.15039 104,104 0 0 1 5.18946,-7.033204 C 292.80616,16.331285 286.44221,16 280,16 Z m 197.90234,104.5625 a 104,104 0 0 1 -3.83593,7.30469 104,104 0 0 1 -41.89258,39.43164 C 447.30725,193.31207 456,223.58627 456,256 c 0,32.41373 -8.69275,62.68793 -23.82617,88.70117 a 104,104 0 0 1 41.89258,39.43164 104,104 0 0 1 3.83593,7.30469 C 504.42506,352.84086 520,306.18553 520,256 520,205.81447 504.42506,159.15914 477.90234,120.5625 Z M 127.09961,343.43359 A 104,104 0 0 1 72,360 104,104 0 0 1 63.339844,359.02344 C 102.01684,439.89095 184.66864,496 280,496 c 6.44221,0 12.80616,-0.33128 19.12305,-0.83398 a 104,104 0 0 1 -5.18946,-7.03321 104,104 0 0 1 -13.19531,-56.15039 C 280.49086,431.98343 280.24767,432 280,432 214.30843,432 157.3438,396.43345 127.09961,343.43359 Z" />
    <circle
       class="cls-2"
       id="circle15"
       cx="72"
       cy="256"
       r="72" />
    <circle
       class="cls-2"
       id="circle17"
       cx="-126.29749"
       cy="-370.48712"
       r="72"
       transform="rotate(120)" />
    <circle
       class="cls-2"
       id="circle19"
       cx="-569.70251"
       cy="114.48711"
       r="72"
       transform="rotate(-120)" />
  </g>
</svg>

<?xml version="1.0" encoding="UTF-8" standalone="no"?>
<svg
   version="1.1"
   viewBox="0 0 520 512"
   id="svg6"
   width="520"
   height="512"
   xmlns:xlink="http://www.w3.org/1999/xlink"
   xmlns="http://www.w3.org/2000/svg"
   xmlns:svg="http://www.w3.org/2000/svg">
  <defs
     id="defs1"><style
       id="style1">
      .cls-1 {
        fill: none;
      }
      .cls-2 {
        fill: #e95420;
      }
      .cls-3 {
        fill: #fff;
      }
    </style></defs>
  <g
     id="CoF">
    <path
       id="circle"
       class="cls-2"
       d="M 280 16 C 184.66864 16 102.01684 72.109047 63.339844 152.97656 A 104 104 0 0 1 72 152 A 104 104 0 0 1 127.09961 168.56641 C 157.3438 115.56655 214.30843 80 280 80 C 280.24767 80 280.49086 80.016569 280.73828 80.017578 A 104 104 0 0 1 293.93359 23.867188 A 104 104 0 0 1 299.12305 16.833984 C 292.80616 16.331285 286.44221 16 280 16 z M 477.90234 120.5625 A 104 104 0 0 1 474.06641 127.86719 A 104 104 0 0 1 432.17383 167.29883 C 447.30725 193.31207 456 223.58627 456 256 C 456 288.41373 447.30725 318.68793 432.17383 344.70117 A 104 104 0 0 1 474.06641 384.13281 A 104 104 0 0 1 477.90234 391.4375 C 504.42506 352.84086 520 306.18553 520 256 C 520 205.81447 504.42506 159.15914 477.90234 120.5625 z M 127.4043 343.96289 A 104 104 0 0 1 72 360 A 104 104 0 0 1 63.339844 359.02344 C 102.01684 439.89095 184.66864 496 280 496 C 286.44221 496 292.80616 495.66872 299.12305 495.16602 A 104 104 0 0 1 293.93359 488.13281 A 104 104 0 0 1 280.73828 431.98242 C 280.49086 431.98343 280.24767 432 280 432 C 214.52761 432 157.72537 396.66958 127.4043 343.96289 z " />
    <circle
       class="cls-2"
       id="head"
       cx="72"
       cy="256"
       r="72" />
    <use
       x="0"
       y="0"
       xlink:href="#head"
       id="use3"
       transform="rotate(120,280,256)" />
    <use
       x="0"
       y="0"
       xlink:href="#head"
       id="use4"
       transform="rotate(-120,280,256)" />
  </g>
</svg>
